src/icons/icons_set_01/032-coeur-contour.svg

<svg height="50" viewBox="0 0 50 50" width="50" xmlns="http://www.w3.org/2000/svg"><path d="m21.9918875 36.9016885c.5937411.0039508 1.1546847-.2268094 1.5680826-.6417722l14.5617822-14.5591178c3.0607864-2.7062776 4.3942319-6.8711153 3.4744102-10.8518538-.9198216-3.98073876-3.9452577-7.13837799-7.883042-8.22750922-3.9377844-1.08913123-8.1558117.06507624-10.9904443 3.00738998l-.7225075.74995391-.720067-.75229749c-2.8313128-2.95804357-7.0573658-4.12406819-11.0049416-3.03641081-3.94757591 1.08765737-6.98006352 4.2535942-7.89681283 8.24432403-.91674931 3.9907298.4300805 8.1626822 3.55479914 10.9086378l14.51097459 14.5184353c.4097286.4115291.967051.6420607 1.5477665.6402203zm-2.9637102.7722597-14.46204894-14.4724872c-3.62970372-3.1864449-5.21837425-8.1075253-4.13701074-12.8148424 1.08136351-4.70731699 4.65837352-8.44173876 9.31478774-9.72469909 4.33251074-1.1937167 8.94939334-.08604546 12.26086584 2.88437157 3.3133152-2.95268677 7.9204489-4.04762073 12.2415017-2.85248327 4.6448646 1.28469884 8.2135568 5.00933307 9.2985443 9.70486489 1.0849876 4.6955318-.4878952 9.60822-4.0535684 12.7583921l-14.5157284 14.5157258c-.7894807.7924741-1.8637893 1.2351109-2.982247 1.2289006-1.1130786.0022088-2.1810253-.4402241-2.9650961-1.227743z" transform="translate(2.995 5.480799)"/></svg>

<?xml version="1.0" encoding="UTF-8"?>
<svg width="50px" height="50px" viewBox="0 0 50 50" version="1.1" xmlns="http://www.w3.org/2000/svg" xmlns:xlink="http://www.w3.org/1999/xlink">
    <!-- Generator: Sketch 52.4 (67378) - http://www.bohemiancoding.com/sketch -->
    <title>032-coeur-contour</title>
    <desc>Created with Sketch.</desc>
    <g id="032-coeur-contour" stroke="none" stroke-width="1" fill="none" fill-rule="evenodd">
        <g id="Group" transform="translate(2.995000, 5.480799)" fill="#000000" fill-rule="nonzero">
            <g id="133-coeur-contour">
                <g id="ICONSET-01">
                    <g id="133-coeur-contour">
                        <path d="M21.9918875,36.9016885 C22.5856286,36.9056393 23.1465722,36.6748791 23.5599701,36.2599163 L38.1217523,21.7007985 C41.1825387,18.9945209 42.5159842,14.8296832 41.5961625,10.8489447 C40.6763409,6.86820594 37.6509048,3.71056671 33.7131205,2.62143548 C29.7753361,1.53230425 25.5573088,2.68651172 22.7226762,5.62882546 L22.0001687,6.37877937 L21.2801017,5.62648188 C18.4487889,2.66843831 14.2227359,1.50241369 10.2751601,2.59007107 C6.32758419,3.67772844 3.29509658,6.84366527 2.37834727,10.8343951 C1.46159796,14.8251249 2.80842777,18.9970773 5.93314641,21.7430329 L20.444121,36.2614682 C20.8538496,36.6729973 21.411172,36.9035289 21.9918875,36.9016885 Z M19.0281773,37.6739482 L4.56612836,23.201461 C0.936424641,20.0150161 -0.652245893,15.0939357 0.429117619,10.3866186 C1.51048113,5.67930161 5.08749114,1.94487984 9.74390536,0.661919506 C14.0764161,-0.531797189 18.6932987,0.575874049 22.0047712,3.54629108 C25.3180864,0.593604305 29.9252201,-0.501329647 34.2462729,0.693807811 C38.8911375,1.97850665 42.4598297,5.70314088 43.5448172,10.3986727 C44.6298048,15.0942045 43.056922,20.0068927 39.4912488,23.1570648 L24.9755204,37.6727906 C24.1860397,38.4652647 23.1117311,38.9079015 21.9932734,38.9016912 C20.8801948,38.9039 19.8122481,38.4614671 19.0281773,37.6739482 Z" id="Shape"></path>
                    </g>
                </g>
            </g>
        </g>
    </g>
</svg>
